src/16/actions/chronometer.svg

<svg xmlns="http://www.w3.org/2000/svg" viewBox="0 0 16 16">
  <defs id="defs3051">
    <style type="text/css" id="current-color-scheme">
      .ColorScheme-Text {
        color:#5d656b;
      }
      </style>
  </defs>
 <path style="fill:currentColor;fill-opacity:1;stroke:none" 
     d="M 8 2 A 1.5 1.5 0 0 0 6.5 3.5 A 1.5 1.5 0 0 0 6.6679688 4.1855469 A 5 5 0 0 0 3 9 A 5 5 0 0 0 8 14 A 5 5 0 0 0 13 9 A 5 5 0 0 0 11.867188 5.8378906 L 12.810547 4.8925781 A 0.5 0.5 0 0 0 12.828125 4.875 L 12.832031 4.8730469 A 0.5 0.5 0 0 0 13 4.5 A 0.5 0.5 0 0 0 12.5 4 A 0.5 0.5 0 0 0 12.126953 4.1679688 L 12.125 4.1660156 L 11.160156 5.1308594 A 5 5 0 0 0 9.3359375 4.1816406 A 1.5 1.5 0 0 0 9.3359375 4.1796875 A 1.5 1.5 0 0 0 9.5 3.5 A 1.5 1.5 0 0 0 8 2 z M 8 3 A 0.5 0.5 0 0 1 8.5 3.5 A 0.5 0.5 0 0 1 8 4 A 0.5 0.5 0 0 1 7.5 3.5 A 0.5 0.5 0 0 1 8 3 z M 8 5 A 4 4 0 0 1 12 9 A 4 4 0 0 1 8 13 A 4 4 0 0 1 4 9 A 4 4 0 0 1 8 5 z M 8 6 L 8 8 A 1 1 0 0 1 9 9 L 11 9 A 3 3 0 0 0 8 6 z "
     class="ColorScheme-Text"
     />
</svg>

<svg xmlns="http://www.w3.org/2000/svg" viewBox="0 0 16 16"><path d="M8 2a1.5 1.5 0 0 0-1.5 1.5 1.5 1.5 0 0 0 .168.686A5 5 0 0 0 3 9a5 5 0 0 0 5 5 5 5 0 0 0 5-5 5 5 0 0 0-1.133-3.162l.944-.945a.5.5 0 0 0 .017-.018l.004-.002A.5.5 0 0 0 13 4.5a.5.5 0 0 0-.5-.5.5.5 0 0 0-.373.168l-.002-.002-.965.965a5 5 0 0 0-1.824-.95 1.5 1.5 0 0 0 0-.001A1.5 1.5 0 0 0 9.5 3.5 1.5 1.5 0 0 0 8 2zm0 1a.5.5 0 0 1 .5.5.5.5 0 0 1-.5.5.5.5 0 0 1-.5-.5A.5.5 0 0 1 8 3zm0 2a4 4 0 0 1 4 4 4 4 0 0 1-4 4 4 4 0 0 1-4-4 4 4 0 0 1 4-4zm0 1v2a1 1 0 0 1 1 1h2a3 3 0 0 0-3-3z" fill="currentColor" color="#5d656b"/></svg>
